X: 1
T: Johnny Going To Ceilidh
M: 4/4
L: 1/8
R: reel
K: Dmix
A3G Addc|A2AG EDEG|A~G3 A2dc|AcAG EDD2|
A2 AG Addc|(3AAA AG EDEG|A~G3 A2dc|AcAG EDD2|
e~g3 edcd|edeg a3g|e~g3 edcA|GAcd ed (3ddd|
e~g3 edcd|edeg a3g|e(a{b}ag) e3d|^cAcd edd2|
